optimized/24/solid/folder-arrow-down.svg

<svg xmlns="http://www.w3.org/2000/svg" viewBox="0 0 24 24">
  <path fill-rule="evenodd" d="M19.5 21C21.1569 21 22.5 19.6569 22.5 18V9C22.5 7.34315 21.1569 6 19.5 6H14.1213C13.9224 6 13.7316 5.92098 13.591 5.78033L11.4697 3.65901C11.0477 3.23705 10.4754 3 9.87868 3H4.5C2.84315 3 1.5 4.34315 1.5 6V18C1.5 19.6569 2.84315 21 4.5 21H19.5ZM12.75 10.5C12.75 10.0858 12.4142 9.75 12 9.75C11.5858 9.75 11.25 10.0858 11.25 10.5L11.25 14.6893L9.53033 12.9697C9.23744 12.6768 8.76256 12.6768 8.46967 12.9697C8.17678 13.2626 8.17678 13.7374 8.46967 14.0303L11.4697 17.0303C11.6103 17.171 11.8011 17.25 12 17.25C12.1989 17.25 12.3897 17.171 12.5303 17.0303L15.5303 14.0303C15.8232 13.7374 15.8232 13.2626 15.5303 12.9697C15.2374 12.6768 14.7626 12.6768 14.4697 12.9697L12.75 14.6893L12.75 10.5Z" clip-rule="evenodd"/>
</svg>

<svg xmlns="http://www.w3.org/2000/svg" viewBox="0 0 24 24" fill="currentColor" aria-hidden="true">
  <path fill-rule="evenodd" d="M19.5 21a3 3 0 003-3V9a3 3 0 00-3-3h-5.379a.75.75 0 01-.53-.22L11.47 3.66A2.25 2.25 0 009.879 3H4.5a3 3 0 00-3 3v12a3 3 0 003 3h15zm-6.75-10.5a.75.75 0 00-1.5 0v4.19l-1.72-1.72a.75.75 0 00-1.06 1.06l3 3a.75.75 0 001.06 0l3-3a.75.75 0 10-1.06-1.06l-1.72 1.72V10.5z" clip-rule="evenodd"/>
</svg>
